X: 18175
T: Humours Of Ennistymon, The
R: jig
M: 6/8
K: Gmajor
BGB BGB|AFA AFA|BGB BGB|def ged|
~B3 BAG|ABA DFA|ded cAF|1 AGF G2A:|2 AGF G2||
|:BGB BGB|AFA AFA|~B3 ~A3|def ged|
~B3 BAG|~A3 ABc|ded cAF|AGF G2A:|
|:~f3 fed|cAG FGA|g g gfg|agf d2e|
(3fga (3efe|cAG FGA|BGB cAF|AGF G2e:|
|:fdd fdd|cAG FGA|g g gfg|agf dde|
~f2d (3efe|cAG FGA|BGB cAD|AGG G2:|

